X: 3445
T: "Engelskan"
R: engelska
C: Trad. 
C: arr. K. Pettersson, 2007
Z: .andersson 
M: 2/4
L: 1/16
Q: 86
K: A

V: 1
|: A2ce a2a2 | (ag)bg e2>c2 | d2fd c2ec | (dB)GB (BA)AG | 
A2ce a2a2 | (ag)bg e2>c2 | d2fd c2ec | (dB)GB A4 :| 
|: (Ac)ec cBB2 | (Bd)fd dcc2 | (Ac)ec (dB)GB | A2ce (ga)ga | 
(Ac)ec cBB2 | (Bd)fd dcc2 | (Ac)ec (dB)GB | A2ag a4 :| 

V: 2 
|: E2AB c2c2 | (cB)dB [E2B2]>G2 | F2AF (FE)AE | (ED)B,D (DC)EC | 
E2AB c2c2 | (cB)dB [E2B2]>G2 | F2AF (FE)AE | (ED)B,D C4 :| 
|: (EA)cA AGG2 | (GB)dB BAA2 | (EA)cA (BG)EG | E2EA (Bc)Bc | 
(EA)cA AGG2 | (GB)dB BAA2 | (EA)cA (BG)EG | E2AB c4 :| 

V: 3
K: bass 
|: A,,4 A,,2A,,2 | E,4 E,2E,2 | D,4 A,,4 | E,,4 A,,2E,,2 | 
A,,4 A,,2A,,2 | E,4 E,2E,2 | D,4 A,,4 | E,,4 A,,4 :| 
|: A,,4 E,,4 | B,,4 A,,4 | A,,4 E,,4 | A,,4 A,,2A,,2 | 
A,,4 E,,4 | B,,4 A,,4 | A,,4 E,,4 | A,,2E,,2 A,,4 :| 

(:musicend:)
(:music:)
